X: 1
T: The Hut On Staffin Island
R: hornpipe
M: 4/4
L: 1/8
K: Dmaj
A,B,DE DD DE|(3FED FA dDcd|(^AB)BB D=AFD|DEFE DB,B,D|
A,B,DE DDDE|(3FED FA dDcd|B2(3BcB BAFD|1DEFE DDDB,:|2DEFE DDFA||
d2(3ddc dfed | cBcd ccBA|(^AB)BB BcdB|AFEF DB,B,A|
DdDd Dfed|cBcd ccBA|B2BA BcdB|AFEF DEFA|
d2(3ddc dfed|cBcd ccBA|(^AB)B=A BcdB|AFEF DB,B,D|
A,B,DE D2 DE|(3FED FA dDcd|[D^A]BBB [DB]=AFD|DEFE D4||


Tune 2067	Setting 24034

